svgs/sharp-regular/square-n.svg

<svg xmlns="http://www.w3.org/2000/svg" viewBox="0 0 448 512"><!--! Font Awesome Pro 6.4.0 by @fontawesome - https://fontawesome.com License - https://fontawesome.com/license (Commercial License) Copyright 2023 Fonticons, Inc. --><path d="M48 80V432H400V80H48zM0 32H48 400h48V80 432v48H400 48 0V432 80 32zm288 96h48v24V360v24H300.9l-7.2-8.5L160 217.5V360v24H112V360 152 128h35.1l7.2 8.5L288 294.5V152 128z"/></svg>

<svg xmlns="http://www.w3.org/2000/svg" viewBox="0 0 448 512"><!--! Font Awesome Pro 6.6.0 by @fontawesome - https://fontawesome.com License - https://fontawesome.com/license (Commercial License) Copyright 2024 Fonticons, Inc. --><path d="M48 80l0 352 352 0 0-352L48 80zM0 32l48 0 352 0 48 0 0 48 0 352 0 48-48 0L48 480 0 480l0-48L0 80 0 32zm288 96l48 0 0 24 0 208 0 24-35.1 0-7.2-8.5L160 217.5 160 360l0 24-48 0 0-24 0-208 0-24 35.1 0 7.2 8.5L288 294.5 288 152l0-24z"/></svg>
